src/assets/__musicbar/musicbar-repeat_play.svg

<svg width="14" height="14" viewBox="0 0 12 10" fill="none" xmlns="http://www.w3.org/2000/svg">
<path d="M1.91492 1L1.20165 1.62357C0.973777 1.82279 0.973777 2.17721 1.20165 2.37643L1.91492 3" stroke="#231EDC" stroke-linecap="round"/>
<path d="M9.92181 7L10.6351 7.62357C10.863 7.82279 10.863 8.17721 10.6351 8.37643L9.92181 9" stroke="#231EDC" stroke-linecap="round"/>
<path d="M1.91492 2H8.85418C9.21004 2 9.92176 2.15 9.92176 2.75C9.92176 3.35 9.92176 4.5 9.92176 5" stroke="#231EDC" stroke-linecap="round"/>
<path d="M9.92181 8H2.98255C2.62669 8 1.91497 7.85 1.91497 7.25C1.91497 6.65 1.91497 5.5 1.91497 5" stroke="#231EDC" stroke-linecap="round"/>
</svg>

<svg width="14" height="14" viewBox="0 0 12 10" fill="none" xmlns="http://www.w3.org/2000/svg"><path d="m1.915 1-.713.624a.5.5 0 0 0 0 .752L1.915 3M9.922 7l.713.624a.5.5 0 0 1 0 .752L9.922 9M1.915 2h6.94c.355 0 1.067.15 1.067.75V5M9.922 8h-6.94c-.355 0-1.067-.15-1.067-.75V5" stroke="#231EDC" stroke-linecap="round"/></svg>
